X:1
T:Title
%%score ( 1 2 ) 3
L:1/8
M:4/4
K:D
V:1 treble nm="Grand Piano, Staff"
V:2 treble 
V:3 bass nm="Voice Oohs, Staff-1"
V:1
 [A,D]2 [A,D]2 [DF]2 [DG]2 | A4 z4 | [DB]2 [Ec]2 [Fd]2 [EA]2 | F2 z2 z4 | [DG]2 E2 [DF]2 [DG]2 | %5
w: By~el~Ein~Neu~Gesengb�chlein,~1531 * * *|||||
 [DF]2 [CE]2 D4 | [A,C]2 [A,D]2 [CE]2 [DF]2 | E4 z4 |] %8
w: |||
V:2
 x8 | D2 C2 [DA]4 | x8 | D2- [D^G]2 [CA]4 | x8 | x8 | x8 | D2 C2 D4 |] %8
V:3
 [D,F,]2 [D,F,]2 [D,A,]2 [B,,G,]2 | [A,,E,]4 [D,F,]4 | [G,,G,]2 [E,G,]2 [D,A,]2 [C,A,]2 | %3
 [D,A,]2 [B,,D,]2 [A,,E,]4 | [B,,D,]2 [C,A,]2 [D,A,]2 [G,,B,]2 | [A,,A,]4 [B,,F,]4 | %6
 [A,,A,]2 F,2 [E,G,]2 [D,A,]2 | [A,,A,]4 [D,F,]4 |] %8

